components/icons/stacks/react-svgrepo-com.svg

<svg xmlns="http://www.w3.org/2000/svg" preserveAspectRatio="xMidYMid" viewBox="0 -14 256 256">
  <path fill="#00D8FF" d="M210.483381 73.8236374c-2.655683-.9140871-5.407514-1.7789613-8.240911-2.5969006.465702-1.900627.893126-3.7766474 1.273161-5.6207704 6.238212-30.2810742 2.159451-54.6757186-11.768303-62.70747357-13.354969-7.70138944-35.196001.32854284-57.254392 19.52528477-2.121175 1.8459457-4.248274 3.8003425-6.374459 5.8486085-1.4167-1.3551821-2.831119-2.6647964-4.241893-3.9174513C100.758745 3.82852863 77.5866802-4.82157937 63.6725966 3.23341515 50.3303869 10.9571328 46.3792156 33.8904224 51.9945178 62.5880206c.5422551 2.7718805 1.1761011 5.6025433 1.8928804 8.4805964-3.2795041.9309471-6.4455448 1.9234107-9.4748826 2.9792133C17.3093297 83.497195 0 98.3066828 0 113.667995c0 15.865292 18.5815786 31.778428 46.8116526 41.427378 2.2278027.761436 4.5394499 1.481405 6.921727 2.16492-.7732831 3.112727-1.4458617 6.163025-2.0104451 9.138138-5.3541994 28.199544-1.1729114 50.591033 12.1337554 58.265994 13.744572 7.926039 36.8118301-.221003 59.2734951-19.855194 1.775316-1.552035 3.557011-3.197938 5.341896-4.923129 2.313471 2.227802 4.623294 4.336217 6.920816 6.313853 21.756733 18.722383 43.245072 26.282514 56.539435 18.586137 13.730902-7.948824 18.193343-32.002622 12.39987-61.267992-.442462-2.235094-.957376-4.51849-1.535629-6.842439 1.61993-.478918 3.210241-.973326 4.760909-1.487329C236.905331 145.46465 256 129.745175 256 113.667995c0-15.4169044-17.867534-30.3261857-45.516619-39.8443576Zm-6.365346 70.9839276c-1.399838.463422-2.836131.911353-4.299764 1.345612-3.23986-10.256823-7.612532-21.163442-12.963542-32.431867 5.106312-11.000033 9.309927-21.7672137 12.459108-31.9575086 2.618773.7577901 5.160537 1.5570469 7.609799 2.4005042 23.689712 8.1552432 38.140127 20.2129004 38.140127 29.5036894 0 9.896384-15.60601 22.743273-40.945728 31.13957Zm-10.514281 20.834442c2.561813 12.940759 2.927721 24.64071 1.230782 33.78705-1.524693 8.218583-4.590941 13.698093-8.38217 15.892632-8.067754 4.669773-25.320578-1.400294-43.92722-17.411857-2.133022-1.835466-4.281537-3.79533-6.436887-5.869571 7.21336-7.889128 14.422619-17.060529 21.458721-27.246268 12.375719-1.098179 24.067925-2.893546 34.671062-5.34463.522205 2.106593.986084 4.17263 1.385712 6.192644ZM87.2761866 214.514686c-7.8822932 2.783728-14.1601491 2.863471-17.9550235.675312-8.0750442-4.65747-11.4320133-22.635733-6.8529197-46.751959.5244838-2.761856 1.1487607-5.598897 1.8682739-8.498823 10.4869402 2.318938 22.0934778 3.987625 34.4988161 4.993303 7.0834926 9.967015 14.5009956 19.128391 21.9759136 27.150121-1.633145 1.57664-3.259911 3.07764-4.877562 4.492059-9.932382 8.682006-19.8857245 14.841841-28.6574984 17.939987Zm-36.9275725-69.767727c-12.4828036-4.266499-22.7915743-9.811627-29.8577507-15.862556-6.349397-5.437588-9.5550817-10.835988-9.5550817-15.216408 0-9.321775 13.8976794-21.2117433 37.0765787-29.2931669 2.8124357-.980616 5.7565619-1.904728 8.8118733-2.7727918 3.2034061 10.4204114 7.4056553 21.3151817 12.4768798 32.3320737-5.1368419 11.18048-9.3987847 22.248865-12.6336326 32.791396-2.1781339-.626099-4.288372-1.285007-6.3188668-1.978547Zm12.3784537-84.2591517c-4.8110332-24.5873955-1.6158291-43.1352541 6.4245837-47.7895344 8.5644409-4.95821666 27.5028138 2.1111493 47.4632705 19.834689 1.275894 1.132812 2.556801 2.3184823 3.841353 3.5451637-7.438008 7.986643-14.787615 17.079213-21.8082236 26.9874439-12.0398868 1.115952-23.5648583 2.9085836-34.1611607 5.3090876-.6661993-2.6798338-1.2563004-5.3127329-1.7598229-7.8868498ZM173.153901 87.7550367c-2.533105-4.3754063-5.133652-8.647374-7.784777-12.8026884 8.168002 1.032563 15.99379 2.4032381 23.342942 4.0805836-2.206387 7.0711887-4.956393 14.4645409-8.19352 22.0438091-2.322127-4.4086708-4.778224-8.8537956-7.364645-13.3217043Zm-45.03178-43.8611468c5.04434 5.464929 10.09597 11.566438 15.064668 18.1865069-5.006975-.2364961-10.075921-.3595288-15.186788-.3595288-5.062567 0-10.094147.1202987-15.070136.3526937 4.97371-6.5585527 10.069085-12.6518596 15.192256-18.1796718ZM82.8018984 87.830679c-2.5303719 4.3877096-4.9409009 8.8086837-7.2265745 13.23786-3.1847235-7.5528392-5.9092136-14.9799114-8.1347379-22.1513491 7.3040395-1.6345118 15.0929189-2.971011 23.2089741-3.98398-2.6884917 4.1935912-5.3104547 8.4970007-7.8476617 12.8965578v.0009113Zm8.0814237 65.35222c-8.38536-.935504-16.2913482-2.203195-23.5935651-3.792596 2.2610672-7.299483 5.0457066-14.88513 8.2978701-22.600646 2.2915975 4.425987 4.7116957 8.848784 7.2575606 13.246063h.0004556c2.5932554 4.479756 5.2799243 8.86792 8.0376788 13.147179Zm37.5413689 31.030206c-5.183321-5.592518-10.353427-11.778782-15.402779-18.433027 4.901712.192295 9.899117.290722 14.978089.290722 5.217952 0 10.37621-.117565 15.453359-.343581-4.985103 6.774089-10.018505 12.969922-15.028669 18.485886Zm52.198205-57.816696c3.421675 7.798904 6.306108 15.344908 8.596338 22.519991-7.422515 1.693293-15.436498 3.057134-23.880185 4.070559 2.657506-4.211364 5.280835-8.556696 7.858597-13.026427 2.607838-4.522133 5.083984-9.051102 7.42525-13.564123Zm-16.89831 8.100562c-4.001751 6.938586-8.110131 13.5623-12.280938 19.81464-7.596585.543165-15.444702.822951-23.443647.822951-7.966593 0-15.71583-.247433-23.177988-.731817-4.338953-6.334359-8.536645-12.977667-12.5128789-19.846081h.0009114c-3.9657532-6.849729-7.6157223-13.757331-10.9230227-20.626198 3.306389-6.884818 6.9467889-13.800165 10.8897582-20.637592l-.0009113.001367c3.9534496-6.8556538 8.1142323-13.4666093 12.4130843-19.7613253 7.613444-.5755193 15.420551-.8758102 23.310591-.8758102h.000456c7.925582 0 15.742713.3025691 23.353878.8831012 4.233235 6.2486926 8.365766 12.8382311 12.334709 19.6947964 4.014056 6.9335749 7.70139 13.8028979 11.03603 20.5400769-3.324615 6.852919-7.003747 13.791507-11.000032 20.721891Zm22.560091-122.1240512c8.572644 4.943635 11.906372 24.881307 6.520276 51.0257494-.343581 1.6682319-.730449 3.3674497-1.150584 5.0894514-10.620909-2.4506285-22.154083-4.274246-34.229054-5.407058-7.03428-10.0171377-14.323738-19.1238337-21.640537-27.0079496 1.967156-1.8924245 3.931578-3.6969038 5.887797-5.399767 18.899641-16.4476453 36.563943-22.94149194 44.612102-18.3004262Zm-58.284676 78.4351498c12.624974 0 22.859925 10.2344954 22.859925 22.8599254 0 12.624974-10.234951 22.859927-22.859925 22.859927-12.624975 0-22.859926-10.234953-22.859926-22.859927 0-12.62543 10.234951-22.8599254 22.859926-22.8599254Z"/>
</svg>

<?xml version="1.0" encoding="UTF-8"?>
<svg width="256px" height="256px" viewBox="0 -14 256 256" version="1.1" xmlns="http://www.w3.org/2000/svg" xmlns:xlink="http://www.w3.org/1999/xlink" preserveAspectRatio="xMidYMid">
    <g>
        <path d="M210.483381,73.8236374 C207.827698,72.9095503 205.075867,72.0446761 202.24247,71.2267368 C202.708172,69.3261098 203.135596,67.4500894 203.515631,65.6059664 C209.753843,35.3248922 205.675082,10.9302478 191.747328,2.89849283 C178.392359,-4.80289661 156.551327,3.22703567 134.492936,22.4237776 C132.371761,24.2697233 130.244662,26.2241201 128.118477,28.2723861 C126.701777,26.917204 125.287358,25.6075897 123.876584,24.3549348 C100.758745,3.82852863 77.5866802,-4.82157937 63.6725966,3.23341515 C50.3303869,10.9571328 46.3792156,33.8904224 51.9945178,62.5880206 C52.5367729,65.3599011 53.1706189,68.1905639 53.8873982,71.068617 C50.6078941,71.9995641 47.4418534,72.9920277 44.4125156,74.0478303 C17.3093297,83.497195 0,98.3066828 0,113.667995 C0,129.533287 18.5815786,145.446423 46.8116526,155.095373 C49.0394553,155.856809 51.3511025,156.576778 53.7333796,157.260293 C52.9600965,160.37302 52.2875179,163.423318 51.7229345,166.398431 C46.3687351,194.597975 50.5500231,216.989464 63.8566899,224.664425 C77.6012619,232.590464 100.66852,224.443422 123.130185,204.809231 C124.905501,203.257196 126.687196,201.611293 128.472081,199.886102 C130.785552,202.113904 133.095375,204.222319 135.392897,206.199955 C157.14963,224.922338 178.637969,232.482469 191.932332,224.786092 C205.663234,216.837268 210.125675,192.78347 204.332202,163.5181 C203.88974,161.283006 203.374826,158.99961 202.796573,156.675661 C204.416503,156.196743 206.006814,155.702335 207.557482,155.188332 C236.905331,145.46465 256,129.745175 256,113.667995 C256,98.2510906 238.132466,83.3418093 210.483381,73.8236374 L210.483381,73.8236374 Z M204.118035,144.807565 C202.718197,145.270987 201.281904,145.718918 199.818271,146.153177 C196.578411,135.896354 192.205739,124.989735 186.854729,113.72131 C191.961041,102.721277 196.164656,91.9540963 199.313837,81.7638014 C201.93261,82.5215915 204.474374,83.3208483 206.923636,84.1643056 C230.613348,92.3195488 245.063763,104.377206 245.063763,113.667995 C245.063763,123.564379 229.457753,136.411268 204.118035,144.807565 L204.118035,144.807565 Z M193.603754,165.642007 C196.165567,178.582766 196.531475,190.282717 194.834536,199.429057 C193.309843,207.64764 190.243595,213.12715 186.452366,215.321689 C178.384612,219.991462 161.131788,213.921395 142.525146,197.909832 C140.392124,196.074366 138.243609,194.114502 136.088259,192.040261 C143.301619,184.151133 150.510878,174.979732 157.54698,164.793993 C169.922699,163.695814 181.614905,161.900447 192.218042,159.449363 C192.740247,161.555956 193.204126,163.621993 193.603754,165.642007 L193.603754,165.642007 Z M87.2761866,214.514686 C79.3938934,217.298414 73.1160375,217.378157 69.3211631,215.189998 C61.2461189,210.532528 57.8891498,192.554265 62.4682434,168.438039 C62.9927272,165.676183 63.6170041,162.839142 64.3365173,159.939216 C74.8234575,162.258154 86.4299951,163.926841 98.8353334,164.932519 C105.918826,174.899534 113.336329,184.06091 120.811247,192.08264 C119.178102,193.65928 117.551336,195.16028 115.933685,196.574699 C106.001303,205.256705 96.0479605,211.41654 87.2761866,214.514686 L87.2761866,214.514686 Z M50.3486141,144.746959 C37.8658105,140.48046 27.5570398,134.935332 20.4908634,128.884403 C14.1414664,123.446815 10.9357817,118.048415 10.9357817,113.667995 C10.9357817,104.34622 24.8334611,92.4562517 48.0123604,84.3748281 C50.8247961,83.3942121 53.7689223,82.4701001 56.8242337,81.6020363 C60.0276398,92.0224477 64.229889,102.917218 69.3011135,113.93411 C64.1642716,125.11459 59.9023288,136.182975 56.6674809,146.725506 C54.489347,146.099407 52.3791089,145.440499 50.3486141,144.746959 L50.3486141,144.746959 Z M62.7270678,60.4878073 C57.9160346,35.9004118 61.1112387,17.3525532 69.1516515,12.6982729 C77.7160924,7.74005624 96.6544653,14.8094222 116.614922,32.5329619 C117.890816,33.6657739 119.171723,34.8514442 120.456275,36.0781256 C113.018267,44.0647686 105.66866,53.1573386 98.6480514,63.0655695 C86.6081646,64.1815215 75.0831931,65.9741531 64.4868907,68.3746571 C63.8206914,65.6948233 63.2305903,63.0619242 62.7270678,60.4878073 L62.7270678,60.4878073 Z M173.153901,87.7550367 C170.620796,83.3796304 168.020249,79.1076627 165.369124,74.9523483 C173.537126,75.9849113 181.362914,77.3555864 188.712066,79.0329319 C186.505679,86.1041206 183.755673,93.4974728 180.518546,101.076741 C178.196419,96.6680702 175.740322,92.2229454 173.153901,87.7550367 L173.153901,87.7550367 Z M128.122121,43.8938899 C133.166461,49.3588189 138.218091,55.4603279 143.186789,62.0803968 C138.179814,61.8439007 133.110868,61.720868 128.000001,61.720868 C122.937434,61.720868 117.905854,61.8411667 112.929865,62.0735617 C117.903575,55.515009 122.99895,49.4217021 128.122121,43.8938899 L128.122121,43.8938899 Z M82.8018984,87.830679 C80.2715265,92.2183886 77.8609975,96.6393627 75.5753239,101.068539 C72.3906004,93.5156998 69.6661103,86.0886276 67.440586,78.9171899 C74.7446255,77.2826781 82.5335049,75.9461789 90.6495601,74.9332099 C87.9610684,79.1268011 85.3391054,83.4302106 82.8018984,87.8297677 L82.8018984,87.830679 L82.8018984,87.830679 Z M90.8833221,153.182899 C82.4979621,152.247395 74.5919739,150.979704 67.289757,149.390303 C69.5508242,142.09082 72.3354636,134.505173 75.5876271,126.789657 C77.8792246,131.215644 80.2993228,135.638441 82.8451877,140.03572 L82.8456433,140.03572 C85.4388987,144.515476 88.1255676,148.90364 90.8833221,153.182899 L90.8833221,153.182899 Z M128.424691,184.213105 C123.24137,178.620587 118.071264,172.434323 113.021912,165.780078 C117.923624,165.972373 122.921029,166.0708 128.000001,166.0708 C133.217953,166.0708 138.376211,165.953235 143.45336,165.727219 C138.468257,172.501308 133.434855,178.697141 128.424691,184.213105 L128.424691,184.213105 Z M180.622896,126.396409 C184.044571,134.195313 186.929004,141.741317 189.219234,148.9164 C181.796719,150.609693 173.782736,151.973534 165.339049,152.986959 C167.996555,148.775595 170.619884,144.430263 173.197646,139.960532 C175.805484,135.438399 178.28163,130.90943 180.622896,126.396409 L180.622896,126.396409 Z M163.724586,134.496971 C159.722835,141.435557 155.614455,148.059271 151.443648,154.311611 C143.847063,154.854776 135.998946,155.134562 128.000001,155.134562 C120.033408,155.134562 112.284171,154.887129 104.822013,154.402745 C100.48306,148.068386 96.285368,141.425078 92.3091341,134.556664 L92.3100455,134.556664 C88.3442923,127.706935 84.6943232,120.799333 81.3870228,113.930466 C84.6934118,107.045648 88.3338117,100.130301 92.276781,93.292874 L92.2758697,93.294241 C96.2293193,86.4385872 100.390102,79.8276317 104.688954,73.5329157 C112.302398,72.9573964 120.109505,72.6571055 127.999545,72.6571055 L128.000001,72.6571055 C135.925583,72.6571055 143.742714,72.9596746 151.353879,73.5402067 C155.587114,79.7888993 159.719645,86.3784378 163.688588,93.2350031 C167.702644,100.168578 171.389978,107.037901 174.724618,113.77508 C171.400003,120.627999 167.720871,127.566587 163.724586,134.496971 L163.724586,134.496971 Z M186.284677,12.3729198 C194.857321,17.3165548 198.191049,37.2542268 192.804953,63.3986692 C192.461372,65.0669011 192.074504,66.7661189 191.654369,68.4881206 C181.03346,66.0374921 169.500286,64.2138746 157.425315,63.0810626 C150.391035,53.0639249 143.101577,43.9572289 135.784778,36.073113 C137.751934,34.1806885 139.716356,32.3762092 141.672575,30.673346 C160.572216,14.2257007 178.236518,7.73185406 186.284677,12.3729198 L186.284677,12.3729198 Z M128.000001,90.8080696 C140.624975,90.8080696 150.859926,101.042565 150.859926,113.667995 C150.859926,126.292969 140.624975,136.527922 128.000001,136.527922 C115.375026,136.527922 105.140075,126.292969 105.140075,113.667995 C105.140075,101.042565 115.375026,90.8080696 128.000001,90.8080696 L128.000001,90.8080696 Z" fill="#00D8FF"></path>
    </g>
</svg>
